outputs/icons/image/adjustments_round.svg

<svg xmlns="http://www.w3.org/2000/svg" width="1200" height="1200" fill="none"><g clip-path="url(#a)"><path fill="#000" d="M150 900c0 27.5 22.5 50 50 50h250V850H200c-27.5 0-50 22.5-50 50m0-600c0 27.5 22.5 50 50 50h450V250H200c-27.5 0-50 22.5-50 50m500 700v-50h350c27.5 0 50-22.5 50-50s-22.5-50-50-50H650v-50c0-27.5-22.5-50-50-50s-50 22.5-50 50v200c0 27.5 22.5 50 50 50s50-22.5 50-50M350 500v50H200c-27.5 0-50 22.5-50 50s22.5 50 50 50h150v50c0 27.5 22.5 50 50 50s50-22.5 50-50V500c0-27.5-22.5-50-50-50s-50 22.5-50 50m700 100c0-27.5-22.5-50-50-50H550v100h450c27.5 0 50-22.5 50-50M800 450c27.5 0 50-22.5 50-50v-50h150c27.5 0 50-22.5 50-50s-22.5-50-50-50H850v-50c0-27.5-22.5-50-50-50s-50 22.5-50 50v200c0 27.5 22.5 50 50 50"/></g><defs><clipPath id="a"><path fill="#fff" d="M0 0h1200v1200H0z"/></clipPath></defs></svg>

<svg width="1200" height="1200" viewBox="0 0 1200 1200" fill="none" xmlns="http://www.w3.org/2000/svg"><g clip-path="url(#clip0_238_2748)"><path d="M150 900C150 927.5 172.5 950 200 950H450V850H200C172.5 850 150 872.5 150 900ZM150 300C150 327.5 172.5 350 200 350H650V250H200C172.5 250 150 272.5 150 300ZM650 1000V950H1000C1027.5 950 1050 927.5 1050 900C1050 872.5 1027.5 850 1000 850H650V800C650 772.5 627.5 750 600 750C572.5 750 550 772.5 550 800V1000C550 1027.5 572.5 1050 600 1050C627.5 1050 650 1027.5 650 1000ZM350 500V550H200C172.5 550 150 572.5 150 600C150 627.5 172.5 650 200 650H350V700C350 727.5 372.5 750 400 750C427.5 750 450 727.5 450 700V500C450 472.5 427.5 450 400 450C372.5 450 350 472.5 350 500ZM1050 600C1050 572.5 1027.5 550 1000 550H550V650H1000C1027.5 650 1050 627.5 1050 600ZM800 450C827.5 450 850 427.5 850 400V350H1000C1027.5 350 1050 327.5 1050 300C1050 272.5 1027.5 250 1000 250H850V200C850 172.5 827.5 150 800 150C772.5 150 750 172.5 750 200V400C750 427.5 772.5 450 800 450Z" fill="#1D1E23"/></g><defs><clipPath id="clip0_238_2748"><path width="24" fill="white" d="M0 0H1200V1200H0V0z"/></clipPath></defs></svg>
